layouts/icon-pack/weapon_axe_one_handed.svg

<?xml version="1.0" encoding="UTF-8"?>
<svg width="1200pt" height="1200pt" version="1.1" viewBox="0 0 1200 1200" xmlns="http://www.w3.org/2000/svg">
 <g fill="#fff">
  <path d="m895.31 637.05c162.33-36.562 217.15-191.98 230.62-241.17 1.2227-4.4492 1.1797-9.1484-0.12891-13.574-1.3125-4.4219-3.832-8.3906-7.2773-11.457-6.4688-5.7891-13.453-11.859-20.836-18.141-2.1211-1.8125-5-2.457-7.6914-1.7188-2.6875 0.73828-4.8359 2.7578-5.7383 5.3984-5.7578 17.398-12.859 34.324-21.234 50.625-26.93 52.383-78.727 119.09-175.78 157.57-4.5 1.8047-8.3203 4.9844-10.914 9.0781-2.5977 4.0977-3.8359 8.9102-3.5469 13.75 0.72656 12.047 0.67969 22.805 0.32813 31.5-0.19141 5.6211 2.2539 11.008 6.6055 14.562 4.3555 3.5586 10.121 4.8828 15.59 3.5781z"/>
  <path d="m594.8 468.75c14.953-13.68 31.156-25.93 48.398-36.586 65.344-39.844 151.36-22.875 194.39 40.359 7.582 11.285 13.871 23.383 18.75 36.07 1.625 4.2266 4.8945 7.6094 9.0625 9.3789 4.1641 1.7656 8.8711 1.7656 13.039-0.003906 107.81-46.383 149.3-133.59 165.16-188.27 1.4609-5.1055 1.3711-10.531-0.26172-15.586-1.6328-5.0547-4.7305-9.5078-8.9023-12.797-45.328-35.859-96.422-74.414-144.14-109.69l3.375-16.852c2.0234-9.5977-0.46484-19.59-6.75-27.117-6.6875-7.7031-14.078-14.766-22.078-21.094-5.7148-4.5312-12.793-7-20.086-7-7.293 0-14.371 2.4688-20.086 7h-0.11719c-3.1914 2.5-7.1055 3.8984-11.156 3.9883-4.0508 0.089844-8.0234-1.1367-11.32-3.4961-28.312-20.438-51.562-37.078-66.492-47.602-4.875-3.5-10.855-5.1094-16.824-4.5273-5.9727 0.58203-11.531 3.3164-15.637 7.6914l-43.945 47.016c-3.3359 3.6094-5.3203 8.2617-5.625 13.168-0.30469 4.9062 1.0977 9.7656 3.9609 13.762 7.4375 10.57 12.812 22.453 15.844 35.016 2.9609 12.238 2.6523 25.039-0.90234 37.121-3.5547 12.078-10.23 23.008-19.348 31.691-246.38 236.04-454.55 558.91-523.34 670.64-26.875 43.402-44.805 91.742-52.734 142.17-1.6641 10.758-2.8359 20.461-3.6562 28.5-0.58203 6.0781 1.457 12.113 5.6094 16.59 4.1484 4.4766 10.012 6.9688 16.117 6.8477l75.305-1.5234c5.4727-0.074219 10.707-2.2617 14.609-6.0977 3.9023-3.8359 6.1758-9.0312 6.3438-14.504 5.5078-248.27 403.43-634.27 403.43-634.27z"/>
 </g>
</svg>

<?xml version="1.0" encoding="UTF-8" standalone="no"?>
<!DOCTYPE svg PUBLIC "-//W3C//DTD SVG 1.1//EN" "http://www.w3.org/Graphics/SVG/1.1/DTD/svg11.dtd">
<svg width="100%" height="100%" viewBox="0 0 512 511" version="1.1" xmlns="http://www.w3.org/2000/svg" xmlns:xlink="http://www.w3.org/1999/xlink" xml:space="preserve" xmlns:serif="http://www.serif.com/" style="fill-rule:evenodd;clip-rule:evenodd;stroke-linejoin:round;stroke-miterlimit:2;">
    <g transform="matrix(1,0,0,1,-73.281,-74.8082)">
        <g transform="matrix(0.485983,0,0,0.485983,37.6677,38.4527)">
            <path d="M895.31,637.05C1057.64,600.488 1112.46,445.07 1125.93,395.88C1127.15,391.431 1127.11,386.732 1125.8,382.306C1124.49,377.884 1121.97,373.915 1118.52,370.849C1112.06,365.06 1105.07,358.99 1097.69,352.708C1095.57,350.895 1092.69,350.251 1090,350.989C1087.31,351.727 1085.16,353.747 1084.26,356.388C1078.5,373.786 1071.4,390.712 1063.02,407.013C1036.09,459.396 984.297,526.103 887.244,564.583C882.744,566.387 878.924,569.567 876.33,573.661C873.732,577.758 872.494,582.571 872.783,587.411C873.51,599.458 873.463,610.216 873.111,618.911C872.92,624.532 875.365,629.919 879.717,633.473C884.072,637.031 889.838,638.355 895.307,637.051L895.31,637.05Z" style="fill:white;fill-rule:nonzero;"/>
            <path d="M594.8,468.75C609.753,455.07 625.956,442.82 643.198,432.164C708.542,392.32 794.558,409.289 837.588,472.523C845.17,483.808 851.459,495.906 856.338,508.593C857.963,512.82 861.232,516.202 865.401,517.972C869.565,519.737 874.272,519.737 878.439,517.968C986.249,471.585 1027.74,384.378 1043.6,329.698C1045.06,324.592 1044.97,319.167 1043.34,314.112C1041.7,309.057 1038.61,304.604 1034.43,301.315C989.107,265.456 938.013,226.901 890.295,191.625L893.67,174.773C895.694,165.175 893.206,155.183 886.92,147.656C880.233,139.953 872.842,132.89 864.842,126.562C859.128,122.031 852.049,119.562 844.756,119.562C837.463,119.562 830.385,122.031 824.67,126.562L824.553,126.562C821.362,129.062 817.448,130.46 813.397,130.55C809.346,130.64 805.374,129.414 802.077,127.054C773.765,106.616 750.515,89.976 735.585,79.452C730.71,75.952 724.73,74.343 718.761,74.925C712.789,75.507 707.23,78.241 703.124,82.616L659.179,129.632C655.843,133.242 653.859,137.894 653.554,142.8C653.25,147.706 654.652,152.566 657.515,156.562C664.953,167.132 670.327,179.015 673.359,191.578C676.32,203.816 676.011,216.617 672.457,228.699C668.902,240.777 662.227,251.707 653.109,260.39C406.729,496.43 198.559,819.3 129.769,931.03C102.894,974.432 84.964,1022.77 77.035,1073.2C75.371,1083.96 74.199,1093.66 73.379,1101.7C72.797,1107.78 74.836,1113.81 78.988,1118.29C83.136,1122.77 89,1125.26 95.105,1125.14L170.41,1123.62C175.883,1123.54 181.117,1121.35 185.019,1117.52C188.921,1113.68 191.195,1108.49 191.363,1103.01C196.871,854.743 594.793,468.743 594.793,468.743L594.8,468.75Z" style="fill:white;fill-rule:nonzero;"/>
        </g>
    </g>
</svg>
